X: 276
T: Ha-Shem Melech [Am] - 2/4 version
M: 2/4
L: 1/8
Z: 2009 John Chambers <jc:trillian.mit.edu>
S: printed MS of unknown origin
%Q: Lively
K: Am
A GF |\
"Am"A2 EE- | EE DC |\
"E7"E2 B,B,- | B,E FE |\
"E7"^G2 EE- | ED CB, |\
"Am"C2 A,A,- | A,A GF |\
A2 EE- | EE DC |
"E7"E2 B,B,- | B,E FE |\
"E7"^G3 G- | GB A^G |\
"Am"A4 -| A |[| c BA |\
"Dm"d3 d- | dd cB |\
"Am"c2 AA- | AA A-A |
"Dm"d3 d- | dd cB |\
"Am"c2 AA- | AA A-A |\
"Dm"d3 d- | dd cB |\
"Am"c2 AA- | Ac BA |\
"E7"B3 ^G- | GB A^G |\
"Am"A4- | A |]



